public/payments/common/mastercard.svg

<svg width="44" height="45" viewBox="0 0 44 45" fill="none" xmlns="http://www.w3.org/2000/svg">
<path d="M43.6564 22.5001C43.6564 29.6501 37.8814 35.4939 30.6627 35.4939C23.5127 35.4939 17.6689 29.6501 17.6689 22.5001C17.6689 15.3501 23.4439 9.50635 30.5939 9.50635C37.8814 9.50635 43.6564 15.3501 43.6564 22.5001Z" fill="#FFB600"/>
<path d="M30.6627 9.50635C37.8127 9.50635 43.6564 15.3501 43.6564 22.5001C43.6564 29.6501 37.8814 35.4939 30.6627 35.4939C23.5127 35.4939 17.6689 29.6501 17.6689 22.5001" fill="#F7981D"/>
<path d="M30.6626 9.50635C37.8126 9.50635 43.6563 15.3501 43.6563 22.5001C43.6563 29.6501 37.8813 35.4939 30.6626 35.4939" fill="#FF8500"/>
<path d="M13.2 9.50635C6.11875 9.5751 0.34375 15.3501 0.34375 22.5001C0.34375 29.6501 6.11875 35.4939 13.3375 35.4939C16.7062 35.4939 19.7312 34.1876 22.0687 32.1251C22.55 31.7126 22.9625 31.2313 23.375 30.7501H20.6938C20.35 30.3376 20.0063 29.8563 19.7313 29.4438H24.3375C24.6125 29.0313 24.8875 28.5501 25.0938 28.0688H18.975C18.7688 27.6563 18.5625 27.1751 18.425 26.6938H25.575C25.9875 25.3876 26.2625 24.0126 26.2625 22.5688C26.2625 21.6063 26.125 20.7126 25.9875 19.8188H18.0125C18.0813 19.3376 18.2188 18.9251 18.3563 18.4438H25.5062C25.3687 17.9626 25.1625 17.4813 24.9562 17.0688H18.9062C19.1125 16.5876 19.3875 16.1751 19.6625 15.6938H24.2687C23.9937 15.2126 23.65 14.7313 23.2375 14.3188H20.6938C21.1063 13.8376 21.5187 13.4251 22 13.0126C19.7313 10.8813 16.6375 9.64385 13.2687 9.64385C13.2687 9.50635 13.2688 9.50635 13.2 9.50635Z" fill="#FF5050"/>
<path d="M0.34375 22.5C0.34375 29.65 6.11875 35.4938 13.3375 35.4938C16.7062 35.4938 19.7312 34.1875 22.0687 32.125C22.55 31.7125 22.9625 31.2313 23.375 30.75H20.6938C20.35 30.3375 20.0063 29.8563 19.7313 29.4438H24.3375C24.6125 29.0313 24.8875 28.55 25.0938 28.0688H18.975C18.7688 27.6563 18.5625 27.175 18.425 26.6938H25.575C25.9875 25.3875 26.2625 24.0125 26.2625 22.5688C26.2625 21.6063 26.125 20.7125 25.9875 19.8188H18.0125C18.0813 19.3375 18.2188 18.925 18.3563 18.4438H25.5062C25.3687 17.9625 25.1625 17.4813 24.9562 17.0688H18.9062C19.1125 16.5875 19.3875 16.175 19.6625 15.6938H24.2687C23.9937 15.2125 23.65 14.7313 23.2375 14.3188H20.6938C21.1063 13.8375 21.5187 13.425 22 13.0125C19.7313 10.8813 16.6375 9.6438 13.2687 9.6438H13.2" fill="#E52836"/>
<path d="M13.3377 35.4938C16.7064 35.4938 19.7314 34.1875 22.0689 32.125C22.5502 31.7125 22.9627 31.2313 23.3752 30.75H20.6939C20.3502 30.3375 20.0064 29.8563 19.7314 29.4438H24.3377C24.6127 29.0313 24.8877 28.55 25.0939 28.0688H18.9752C18.7689 27.6563 18.5627 27.175 18.4252 26.6938H25.5752C25.9877 25.3875 26.2627 24.0125 26.2627 22.5688C26.2627 21.6063 26.1252 20.7125 25.9877 19.8188H18.0127C18.0814 19.3375 18.2189 18.925 18.3564 18.4438H25.5064C25.3689 17.9625 25.1627 17.4813 24.9564 17.0688H18.9064C19.1127 16.5875 19.3877 16.175 19.6627 15.6938H24.2689C23.9939 15.2125 23.6502 14.7313 23.2377 14.3188H20.6939C21.1064 13.8375 21.5189 13.425 22.0002 13.0125C19.7314 10.8813 16.6377 9.6438 13.2689 9.6438H13.2002" fill="#CB2026"/>
<path d="M17.9436 25.8001L18.1498 24.6313C18.0811 24.6313 17.9436 24.7001 17.8061 24.7001C17.3248 24.7001 17.2561 24.4251 17.3248 24.2876L17.7373 21.8813H18.4936L18.6998 20.5751H18.0123L18.1498 19.7501H16.7748C16.7748 19.7501 15.9498 24.2876 15.9498 24.8376C15.9498 25.6626 16.4311 26.0063 17.0498 26.0063C17.4623 26.0063 17.8061 25.8688 17.9436 25.8001ZM18.4248 23.6001C18.4248 25.5251 19.7311 26.0063 20.8311 26.0063C21.8623 26.0063 22.2748 25.8001 22.2748 25.8001L22.5498 24.4938C22.5498 24.4938 21.7936 24.8376 21.1061 24.8376C19.5936 24.8376 19.8686 23.7376 19.8686 23.7376H22.6873C22.6873 23.7376 22.8936 22.8438 22.8936 22.5001C22.8936 21.6063 22.4123 20.5063 20.8998 20.5063C19.4561 20.3688 18.4248 21.8813 18.4248 23.6001ZM20.8311 21.6063C21.5873 21.6063 21.4498 22.5001 21.4498 22.5688H19.9373C19.9373 22.5001 20.0748 21.6063 20.8311 21.6063ZM29.5623 25.8001L29.8373 24.2876C29.8373 24.2876 29.1498 24.6313 28.6686 24.6313C27.7061 24.6313 27.2936 23.8751 27.2936 23.0501C27.2936 21.4001 28.1186 20.5063 29.0811 20.5063C29.7686 20.5063 30.3186 20.9188 30.3186 20.9188L30.5248 19.4751C30.5248 19.4751 29.6998 19.1313 28.9436 19.1313C27.3623 19.1313 25.7811 20.5063 25.7811 23.1188C25.7811 24.8376 26.6061 26.0063 28.2561 26.0063C28.8061 26.0063 29.5623 25.8001 29.5623 25.8001ZM10.3811 20.3688C9.41855 20.3688 8.73105 20.6438 8.73105 20.6438L8.5248 21.8126C8.5248 21.8126 9.14355 21.5376 10.0373 21.5376C10.5186 21.5376 10.9311 21.6063 10.9311 22.0188C10.9311 22.2938 10.8623 22.3626 10.8623 22.3626H10.2436C9.0748 22.3626 7.76855 22.8438 7.76855 24.4251C7.76855 25.6626 8.59355 25.9376 9.0748 25.9376C10.0373 25.9376 10.4498 25.3188 10.5186 25.3188L10.4498 25.8688H11.6873L12.2373 22.0876C12.2373 20.4376 10.8623 20.3688 10.3811 20.3688ZM10.6561 23.4626C10.6561 23.6688 10.5186 24.7688 9.69355 24.7688C9.28105 24.7688 9.14355 24.4251 9.14355 24.2188C9.14355 23.8751 9.3498 23.3938 10.3811 23.3938C10.5873 23.4626 10.6561 23.4626 10.6561 23.4626ZM13.5436 25.9376C13.8873 25.9376 15.6061 26.0063 15.6061 24.1501C15.6061 22.4313 13.9561 22.7751 13.9561 22.0876C13.9561 21.7438 14.2311 21.6063 14.7123 21.6063C14.9186 21.6063 15.6748 21.6751 15.6748 21.6751L15.8811 20.4376C15.8811 20.4376 15.3998 20.3001 14.5748 20.3001C13.5436 20.3001 12.5123 20.7126 12.5123 22.0876C12.5123 23.6688 14.2311 23.5313 14.2311 24.1501C14.2311 24.5626 13.7498 24.6313 13.4061 24.6313C12.7873 24.6313 12.1686 24.4251 12.1686 24.4251L11.9623 25.6626C12.0311 25.8001 12.3748 25.9376 13.5436 25.9376ZM40.9748 19.2688L40.6998 21.1251C40.6998 21.1251 40.1498 20.4376 39.3936 20.4376C38.1561 20.4376 37.0561 21.9501 37.0561 23.7376C37.0561 24.8376 37.6061 26.0063 38.7748 26.0063C39.5998 26.0063 40.0811 25.4563 40.0811 25.4563L40.0123 25.9376H41.3873L42.4186 19.3376L40.9748 19.2688ZM40.3561 22.9126C40.3561 23.6688 40.0123 24.6313 39.2561 24.6313C38.7748 24.6313 38.4998 24.2188 38.4998 23.5313C38.4998 22.4313 38.9811 21.7438 39.5998 21.7438C40.0811 21.7438 40.3561 22.0876 40.3561 22.9126ZM2.8873 25.8688L3.7123 20.9188L3.8498 25.8688H4.8123L6.5998 20.9188L5.84355 25.8688H7.2873L8.3873 19.2688H6.11855L4.74356 23.3251L4.6748 19.2688H2.68105L1.58105 25.8688H2.8873ZM24.1998 25.8688C24.6123 23.6001 24.6811 21.7438 25.6436 22.0876C25.7811 21.1938 25.9873 20.8501 26.1248 20.5063H25.8498C25.2311 20.5063 24.7498 21.3313 24.7498 21.3313L24.8873 20.5751H23.5811L22.6873 25.9376H24.1998V25.8688ZM32.7248 20.3688C31.7623 20.3688 31.0748 20.6438 31.0748 20.6438L30.8686 21.8126C30.8686 21.8126 31.4873 21.5376 32.3811 21.5376C32.8623 21.5376 33.2748 21.6063 33.2748 22.0188C33.2748 22.2938 33.2061 22.3626 33.2061 22.3626H32.5873C31.4186 22.3626 30.1123 22.8438 30.1123 24.4251C30.1123 25.6626 30.9373 25.9376 31.4186 25.9376C32.3811 25.9376 32.7936 25.3188 32.8623 25.3188L32.7936 25.8688H34.0311L34.5811 22.0876C34.6498 20.4376 33.2061 20.3688 32.7248 20.3688ZM33.0686 23.4626C33.0686 23.6688 32.9311 24.7688 32.1061 24.7688C31.6936 24.7688 31.5561 24.4251 31.5561 24.2188C31.5561 23.8751 31.7623 23.3938 32.7936 23.3938C32.9998 23.4626 32.9998 23.4626 33.0686 23.4626ZM35.7498 25.8688C36.1623 23.6001 36.2311 21.7438 37.1936 22.0876C37.3311 21.1938 37.5373 20.8501 37.6748 20.5063H37.3998C36.7811 20.5063 36.2998 21.3313 36.2998 21.3313L36.4373 20.5751H35.1311L34.2373 25.9376H35.7498V25.8688Z" fill="white"/>
<path d="M15.8123 24.8376C15.8123 25.6626 16.2936 26.0063 16.9123 26.0063C17.3936 26.0063 17.8061 25.8688 17.9436 25.8001L18.1498 24.6313C18.0811 24.6313 17.9436 24.7001 17.8061 24.7001C17.3248 24.7001 17.2561 24.4251 17.3248 24.2876L17.7373 21.8813H18.4936L18.6998 20.5751H18.0123L18.1498 19.7501M19.1123 23.6001C19.1123 25.5251 19.7311 26.0063 20.8311 26.0063C21.8623 26.0063 22.2748 25.8001 22.2748 25.8001L22.5498 24.4938C22.5498 24.4938 21.7936 24.8376 21.1061 24.8376C19.5936 24.8376 19.8686 23.7376 19.8686 23.7376H22.6873C22.6873 23.7376 22.8936 22.8438 22.8936 22.5001C22.8936 21.6063 22.4123 20.5063 20.8998 20.5063C19.4561 20.3688 19.1123 21.8813 19.1123 23.6001ZM20.8311 21.6063C21.5873 21.6063 21.7248 22.5001 21.7248 22.5688H19.9373C19.9373 22.5001 20.0748 21.6063 20.8311 21.6063ZM29.5623 25.8001L29.8373 24.2876C29.8373 24.2876 29.1498 24.6313 28.6686 24.6313C27.7061 24.6313 27.2936 23.8751 27.2936 23.0501C27.2936 21.4001 28.1186 20.5063 29.0811 20.5063C29.7686 20.5063 30.3186 20.9188 30.3186 20.9188L30.5248 19.4751C30.5248 19.4751 29.6998 19.1313 28.9436 19.1313C27.3623 19.1313 26.4686 20.5063 26.4686 23.1188C26.4686 24.8376 26.6061 26.0063 28.2561 26.0063C28.8061 26.0063 29.5623 25.8001 29.5623 25.8001ZM8.5248 21.8813C8.5248 21.8813 9.14355 21.6063 10.0373 21.6063C10.5186 21.6063 10.9311 21.6751 10.9311 22.0876C10.9311 22.3626 10.8623 22.4313 10.8623 22.4313H10.2436C9.0748 22.4313 7.76855 22.9126 7.76855 24.4938C7.76855 25.7313 8.59355 26.0063 9.0748 26.0063C10.0373 26.0063 10.4498 25.3876 10.5186 25.3876L10.4498 25.9376H11.6873L12.2373 22.1563C12.2373 20.5751 10.8623 20.5063 10.3123 20.5063M11.3436 23.4626C11.3436 23.6688 10.5186 24.7688 9.69355 24.7688C9.28105 24.7688 9.14355 24.4251 9.14355 24.2188C9.14355 23.8751 9.3498 23.3938 10.3811 23.3938C10.5873 23.4626 11.3436 23.4626 11.3436 23.4626ZM12.0311 25.8001C12.0311 25.8001 12.4436 25.9376 13.6123 25.9376C13.9561 25.9376 15.6748 26.0063 15.6748 24.1501C15.6748 22.4313 14.0248 22.7751 14.0248 22.0876C14.0248 21.7438 14.2998 21.6063 14.7811 21.6063C14.9873 21.6063 15.7436 21.6751 15.7436 21.6751L15.9498 20.4376C15.9498 20.4376 15.4686 20.3001 14.6436 20.3001C13.6123 20.3001 13.2686 20.7126 13.2686 22.0876C13.2686 23.6688 14.2998 23.5313 14.2998 24.1501C14.2998 24.5626 13.8186 24.6313 13.4748 24.6313M40.6998 21.1251C40.6998 21.1251 40.1498 20.4376 39.3936 20.4376C38.1561 20.4376 37.7436 21.9501 37.7436 23.7376C37.7436 24.8376 37.6061 26.0063 38.7748 26.0063C39.5998 26.0063 40.0811 25.4563 40.0811 25.4563L40.0123 25.9376H41.3873L42.4186 19.3376M40.6311 22.9126C40.6311 23.6688 40.0123 24.6313 39.2561 24.6313C38.7748 24.6313 38.4998 24.2188 38.4998 23.5313C38.4998 22.4313 38.9811 21.7438 39.5998 21.7438C40.0811 21.7438 40.6311 22.0876 40.6311 22.9126ZM2.8873 25.8688L3.7123 20.9188L3.8498 25.8688H4.8123L6.5998 20.9188L5.84355 25.8688H7.2873L8.3873 19.2688H6.66855L4.74356 23.3251L4.6748 19.2688H3.91855L1.58105 25.8688H2.8873ZM22.7561 25.8688H24.1998C24.6123 23.6001 24.6811 21.7438 25.6436 22.0876C25.7811 21.1938 25.9873 20.8501 26.1248 20.5063H25.8498C25.2311 20.5063 24.7498 21.3313 24.7498 21.3313L24.8873 20.5751M30.8686 21.8813C30.8686 21.8813 31.4873 21.6063 32.3811 21.6063C32.8623 21.6063 33.2748 21.6751 33.2748 22.0876C33.2748 22.3626 33.2061 22.4313 33.2061 22.4313H32.5873C31.4186 22.4313 30.1123 22.9126 30.1123 24.4938C30.1123 25.7313 30.9373 26.0063 31.4186 26.0063C32.3811 26.0063 32.7936 25.3876 32.8623 25.3876L32.7936 25.9376H34.0311L34.5811 22.1563C34.5811 20.5751 33.2061 20.5063 32.6561 20.5063M33.6873 23.4626C33.6873 23.6688 32.8623 24.7688 32.0373 24.7688C31.6248 24.7688 31.4873 24.4251 31.4873 24.2188C31.4873 23.8751 31.6936 23.3938 32.7248 23.3938C32.9998 23.4626 33.6873 23.4626 33.6873 23.4626ZM34.3061 25.8688H35.7498C36.1623 23.6001 36.2311 21.7438 37.1936 22.0876C37.3311 21.1938 37.5373 20.8501 37.6748 20.5063H37.3998C36.7811 20.5063 36.2998 21.3313 36.2998 21.3313L36.4373 20.5751" fill="#DCE5E5"/>
</svg>

<svg xmlns="http://www.w3.org/2000/svg" width="44" height="45" fill="none"><path fill="#FFB600" d="M43.66 22.5a12.98 12.98 0 1 1-26 0 13 13 0 0 1 25.99 0Z"/><path fill="#F7981D" d="M30.66 9.5c7.15 0 13 5.85 13 13a12.98 12.98 0 1 1-26 0"/><path fill="#FF8500" d="M30.66 9.5c7.15 0 13 5.85 13 13s-5.78 13-13 13"/><path fill="#FF5050" d="M13.2 9.5a13 13 0 0 0 .14 26c3.37 0 6.4-1.31 8.73-3.37.48-.42.9-.9 1.3-1.38H20.7c-.34-.41-.68-.9-.96-1.3h4.6c.28-.42.56-.9.76-1.38h-6.11a8.2 8.2 0 0 1-.55-1.38h7.14c.42-1.3.7-2.68.7-4.12 0-.96-.14-1.86-.28-2.75H18c.07-.48.2-.9.35-1.38h7.15a8.2 8.2 0 0 0-.55-1.37H18.9c.2-.48.48-.9.75-1.38h4.6a6.54 6.54 0 0 0-1.02-1.37h-2.55c.42-.48.83-.9 1.31-1.3a12.69 12.69 0 0 0-8.73-3.38c0-.13 0-.13-.07-.13Z"/><path fill="#E52836" d="M.34 22.5a12.98 12.98 0 0 0 23.04 8.25h-2.69c-.34-.41-.68-.9-.96-1.3h4.6c.28-.42.56-.9.76-1.38h-6.11a8.2 8.2 0 0 1-.55-1.38h7.14c.42-1.3.7-2.68.7-4.12 0-.96-.14-1.86-.28-2.75H18c.07-.48.2-.9.35-1.38h7.15a8.19 8.19 0 0 0-.55-1.37H18.9c.2-.48.48-.9.75-1.38h4.6a6.54 6.54 0 0 0-1.02-1.37h-2.55c.42-.48.83-.9 1.31-1.3a12.69 12.69 0 0 0-8.73-3.38h-.07"/><path fill="#CB2026" d="M13.34 35.5a13.15 13.15 0 0 0 10.04-4.75h-2.69c-.34-.41-.68-.9-.96-1.3h4.6c.28-.42.56-.9.76-1.38h-6.11a8.2 8.2 0 0 1-.55-1.38h7.15c.4-1.3.68-2.68.68-4.12 0-.96-.13-1.86-.27-2.75H18c.07-.48.2-.9.35-1.38h7.15a8.19 8.19 0 0 0-.55-1.37H18.9c.2-.48.48-.9.75-1.38h4.6a6.54 6.54 0 0 0-1.02-1.37h-2.55c.42-.48.83-.9 1.31-1.3a12.69 12.69 0 0 0-8.73-3.38h-.07"/><path fill="#fff" d="m17.94 25.8.21-1.17c-.07 0-.2.07-.34.07-.49 0-.55-.27-.49-.41l.42-2.4h.75l.21-1.31h-.69l.14-.83h-1.38s-.82 4.54-.82 5.09c0 .82.48 1.17 1.1 1.17.41 0 .76-.14.9-.21Zm.48-2.2c0 1.93 1.31 2.4 2.41 2.4 1.03 0 1.44-.2 1.44-.2l.28-1.3s-.76.34-1.44.34c-1.52 0-1.24-1.1-1.24-1.1h2.82s.2-.9.2-1.24c0-.9-.48-2-1.99-2-1.44-.13-2.48 1.38-2.48 3.1Zm2.41-2c.76 0 .62.9.62.97h-1.51c0-.07.13-.96.9-.96Zm8.73 4.2.28-1.51s-.69.34-1.17.34c-.96 0-1.38-.75-1.38-1.58 0-1.65.83-2.54 1.8-2.54.68 0 1.23.4 1.23.4l.2-1.43s-.82-.35-1.58-.35c-1.58 0-3.16 1.38-3.16 3.99 0 1.72.83 2.89 2.48 2.89.55 0 1.3-.21 1.3-.21Zm-19.18-5.43c-.96 0-1.65.27-1.65.27l-.2 1.17s.61-.27 1.5-.27c.49 0 .9.07.9.48 0 .27-.07.34-.07.34h-.62c-1.17 0-2.47.48-2.47 2.07 0 1.23.82 1.5 1.3 1.5.97 0 1.38-.61 1.45-.61l-.07.55h1.24l.55-3.78c0-1.65-1.38-1.72-1.86-1.72Zm.28 3.1c0 .2-.14 1.3-.97 1.3-.4 0-.55-.34-.55-.55 0-.34.21-.83 1.24-.83.2.07.28.07.28.07Zm2.88 2.47c.35 0 2.07.07 2.07-1.79 0-1.72-1.65-1.37-1.65-2.06 0-.35.27-.48.75-.48.2 0 .96.07.96.07l.21-1.24s-.48-.14-1.3-.14c-1.04 0-2.07.41-2.07 1.79 0 1.58 1.72 1.44 1.72 2.06 0 .41-.48.48-.82.48-.62 0-1.24-.2-1.24-.2l-.2 1.23c.06.14.4.28 1.57.28Zm27.43-6.67-.27 1.86s-.55-.7-1.3-.7c-1.24 0-2.34 1.52-2.34 3.3 0 1.1.55 2.28 1.71 2.28.83 0 1.31-.55 1.31-.55l-.07.48h1.38l1.03-6.6-1.45-.07Zm-.61 3.64c0 .76-.35 1.72-1.1 1.72-.49 0-.76-.41-.76-1.1 0-1.1.48-1.79 1.1-1.79.48 0 .76.35.76 1.17ZM2.89 25.87l.82-4.95.14 4.95h.96l1.79-4.95-.76 4.95H7.3l1.1-6.6H6.12l-1.38 4.06-.07-4.06H2.68l-1.1 6.6h1.3Zm21.31 0c.41-2.27.48-4.13 1.44-3.78.14-.9.35-1.24.48-1.58h-.27c-.62 0-1.1.82-1.1.82l.14-.75h-1.3l-.9 5.36h1.51v-.07Zm8.52-5.5c-.96 0-1.65.27-1.65.27l-.2 1.17s.62-.27 1.51-.27c.48 0 .9.07.9.48 0 .27-.07.34-.07.34h-.62c-1.17 0-2.48.48-2.48 2.07 0 1.23.83 1.5 1.3 1.5.97 0 1.38-.61 1.45-.61l-.07.55h1.24l.55-3.78c.07-1.65-1.37-1.72-1.86-1.72Zm.35 3.1c0 .2-.14 1.3-.96 1.3-.42 0-.55-.34-.55-.55 0-.34.2-.83 1.23-.83.21.07.21.07.28.07Zm2.68 2.4c.41-2.27.48-4.13 1.44-3.78.14-.9.35-1.24.48-1.58h-.27c-.62 0-1.1.82-1.1.82l.14-.75h-1.3l-.9 5.36h1.51v-.07Z"/><path fill="#DCE5E5" d="M15.81 24.84c0 .82.48 1.17 1.1 1.17.48 0 .9-.14 1.03-.21l.21-1.17c-.07 0-.2.07-.34.07-.49 0-.55-.27-.49-.41l.42-2.4h.75l.21-1.31h-.69l.14-.83m.96 3.85c0 1.93.62 2.4 1.72 2.4 1.03 0 1.44-.2 1.44-.2l.28-1.3s-.76.34-1.44.34c-1.52 0-1.24-1.1-1.24-1.1h2.82s.2-.9.2-1.24c0-.9-.48-2-1.99-2-1.44-.13-1.79 1.38-1.79 3.1Zm1.72-2c.76 0 .9.9.9.97h-1.8c0-.07.14-.96.9-.96Zm8.73 4.2.28-1.51s-.69.34-1.17.34c-.96 0-1.38-.75-1.38-1.58 0-1.65.83-2.54 1.8-2.54.68 0 1.23.4 1.23.4l.2-1.43s-.82-.35-1.58-.35c-1.58 0-2.47 1.38-2.47 3.99 0 1.72.14 2.89 1.79 2.89.55 0 1.3-.21 1.3-.21ZM8.52 21.88s.62-.27 1.52-.27c.48 0 .9.07.9.48 0 .27-.08.34-.08.34h-.62c-1.17 0-2.47.48-2.47 2.06 0 1.24.82 1.52 1.3 1.52.97 0 1.38-.62 1.45-.62l-.07.55h1.24l.55-3.78c0-1.58-1.38-1.65-1.93-1.65m1.03 2.95c0 .2-.82 1.3-1.65 1.3-.4 0-.55-.33-.55-.54 0-.34.21-.83 1.24-.83.2.07.96.07.96.07Zm.7 2.34s.4.14 1.57.14c.35 0 2.06.07 2.06-1.79 0-1.72-1.65-1.37-1.65-2.06 0-.35.28-.48.76-.48.2 0 .96.07.96.07l.21-1.24s-.48-.14-1.3-.14c-1.04 0-1.38.41-1.38 1.79 0 1.58 1.03 1.44 1.03 2.06 0 .41-.48.48-.83.48m27.23-3.5s-.55-.7-1.3-.7c-1.24 0-1.66 1.52-1.66 3.3 0 1.1-.13 2.28 1.03 2.28.83 0 1.31-.55 1.31-.55l-.07.48h1.38l1.03-6.6m-1.79 3.57c0 .76-.62 1.72-1.37 1.72-.49 0-.76-.41-.76-1.1 0-1.1.48-1.79 1.1-1.79.48 0 1.03.35 1.03 1.17ZM2.9 25.87l.82-4.95.14 4.95h.96l1.79-4.95-.76 4.95H7.3l1.1-6.6H6.67l-1.93 4.06-.07-4.06h-.75l-2.34 6.6h1.3Zm19.87 0h1.44c.41-2.27.48-4.13 1.44-3.78.14-.9.35-1.24.48-1.58h-.27c-.62 0-1.1.82-1.1.82l.14-.75m5.98 1.3s.62-.27 1.51-.27c.48 0 .9.07.9.48 0 .27-.07.34-.07.34h-.62c-1.17 0-2.48.48-2.48 2.06 0 1.24.83 1.52 1.3 1.52.97 0 1.38-.62 1.45-.62l-.07.55h1.24l.55-3.78c0-1.58-1.37-1.65-1.92-1.65m1.03 2.95c0 .2-.83 1.3-1.65 1.3-.42 0-.55-.33-.55-.54 0-.34.2-.83 1.23-.83.28.07.97.07.97.07Zm.62 2.4h1.44c.41-2.26.48-4.12 1.44-3.77.14-.9.35-1.24.48-1.58h-.27c-.62 0-1.1.82-1.1.82l.14-.75"/></svg>
